X:1
T:Sing Psalms unto Him
T:Hugh E. Smith, 1899
T:Sing Psalms unto Him
T:Public Domain
T:Public Domain
C:Hugh E. Smith, 1899
Z:Public Domain
%%score ( 1 2 ) ( 3 4 )
L:1/8
M:4/4
K:A
V:1 treble 
V:2 treble 
V:3 bass 
V:4 bass 
V:1
 [CE]2 | [CE]2 [EA]2 [Ec]2 [EA]2 | (FG)(AF) [CE]2 E2 | [DF]2 [DA]2 [DG]2 [DB]2 | [CA]6 [CE]2 | %5
w: 1.~Give|thanks to God, call|on * His * name; To|make known. Sing ye|to Him,|
w: 2.~To|glo- ry in His|ho- * ly * name, U-|ac- cord; And let|the heart|
w: 3.~The|Lord Al- might- y,|and * His * strength, With|seek ye; His bless-|èd and|
w: 4.~Re-|mem- ber all His|might- * y * deeds, The|hath done; The right-|eous judg-|
 [CE]2 [EA]2 [Ec]2 [=Ge]2 | [Fe]2 [Fd]2 [=FA]2 [Fd]2 | [Ec]2 [Ec]2 ([Ec][DB])([CA][B,G]) | [CA]6 || %9
w: sing psalms; pro- claim|His won- drous works|each one. * * * *||
w: of ev- ery one|Re- joice that seeks|the Lord. Sing * ye *|to|
w: His gra- cious face|Seek ye con- tin-|ual- ly. * * * *||
w: ments of His mouth,|Re- mem- ber them|each one. * * * *||
"^Refrain" (3CEA x | c6 (3[CE][EA][Ac] | [ce]6 [Ac]>[Ac] | [Gd]4 [Ge]2 [Gd]2 | [Ac]6 [Ec]2 | %14
w: |||||
w: Him, sing ye|to Him with a|Sing ye to|Him, sing ye|to Him,|
w: |||||
w: |||||
 [EB]3 [GB] [Gc]2 [Gd]2 | [=Ge]2 [Bd]2 [Ac]2 [Af]2 | [Ge]4 [EG]4 | [EA]6 |] %18
w: ||||
w: Sing psalms to Him.||||
w: ||||
w: ||||
V:2
 x2 | x8 | D2 D2 x E2 x | x8 | x8 | x8 | x8 | x8 | x6 || CEA | c6 x2 | x8 | x8 | x8 | x8 | x8 | %16
w: ||men His deeds||||||||||||||
w: ||nite with one|||||||to Him, Sing|psalm;||||||
w: ||stead- fast hearst||||||||||||||
w: ||won- ders He||||||||||||||
 x8 | x6 |] %18
w: ||
w: ||
w: ||
w: ||
V:3
 A,2 | [E,A,]2 [C,A,]2 [A,,A,]2 [C,A,]2 | [D,A,]2 [F,A,]2 A,2 [C,A,]2 | %3
w: ~|~ ~ ~ ~|~ ~ ~ ~|
 [D,A,]2 [D,F,]2 [E,B,]2 [E,G,]2 | [A,,A,]6 A,2 | [E,A,]2 [C,A,]2 [A,,A,]2 [C,A,]2 | %6
w: ~ ~ ~ ~|~ ~|~ ~ ~ ~|
 [D,A,]2 [D,A,]2 [D,A,]2 [D,A,]2 | [E,A,]2 [E,A,]2 E,2 E,2 | [A,,E,]6 || z2 x | %10
w: ~ ~ ~ ~|~ ~ With a|a||
 z2 (3(A,,C,)E, A,2 z2 | z2 (3([A,,C,][C,E,])[E,A,] [A,C]2 [A,E]>[A,E] | [B,E]4 [B,D]2 [E,E]2 | %13
w: psalm * * *|||
 [A,E]6 A,2 | [G,B,]3 [E,D] [E,C]2 [E,B,]2 | [A,C]2 [D,F]2 [E,E]2 [E,^D]2 | [E,D]4 (B,2 CD) | %17
w: ||||
 [A,,C]6 |] %18
w: |
V:4
 A,2 | x8 | x4 A,2 x2 | x8 | x6 A,2 | x8 | x8 | x4 E,2 E,2 | x6 || x3 | x2 A,,C, E, A,2 x | x8 | %12
w: ~||~||~|||psalm, with|||||
 x8 | x6 A,2 | x8 | x8 | x4 E,4 | x6 |] %18
w: ||||||

